X:449
T:Polska av O. Styrlander d.y.
T:(SvL Östergötland 449)
R:Polska
O:Kisa, Östergötland
S:Fredrik Clarin
S:Johan Frans Clarin
S:Olof Styrlander d.y.
B:Svenska Låtar Östergötland
M:3/4
L:1/8
K:G
(c2{dc}) BA Bc|^cd G2 z2|B2 AG AB|c/A/F/A/ GD B,G,|
(c2{dc}) BA Bc|^cd G2 b2|ag fg ef|a/g/e/^c/ d4:|
|:d2 d/c/B/c/ d/c/B/c/|db DG Bd|c2 c/B/A/B/ c/B/A/B/|ca DF Ac|
Bd d/c/B/c/ d2|eg g/f/e/f/ g2|ec Bd AB|c/A/F/A/ G4:|

